assets/images/payment-methods/bank-debit.svg

<svg width="64" height="40" viewBox="0 0 64 40" fill="none" xmlns="http://www.w3.org/2000/svg">
<path d="M0 4C0 1.79086 1.79086 0 4 0H60C62.2091 0 64 1.79086 64 4V36C64 38.2091 62.2091 40 60 40H4C1.79086 40 0 38.2091 0 36V4Z" fill="white"/>
<path fill-rule="evenodd" clip-rule="evenodd" d="M32.0817 8.32996L21 14.1625V16.4955H43.1635V14.1625L32.0817 8.32996ZM32.0817 10.9661L38.1592 14.1623H26.0043L32.0817 10.9661ZM26.2492 18.8285H23.9162V26.994H26.2492V18.8285ZM33.2482 18.8285H30.9152V26.994H33.2482V18.8285ZM21 31.66V29.327H43.1635V31.66H21ZM40.2472 18.8285H37.9142V26.994H40.2472V18.8285Z" fill="#646970"/>
</svg>

<svg xmlns="http://www.w3.org/2000/svg" width="64" height="40" fill="none"><path fill="#fff" d="M0 4a4 4 0 0 1 4-4h56a4 4 0 0 1 4 4v32a4 4 0 0 1-4 4H4a4 4 0 0 1-4-4V4Z"/><path fill="#646970" fill-rule="evenodd" d="M32.08 8.33 21 14.16v2.34h22.16v-2.34L32.08 8.33Zm0 2.64 6.08 3.2H26l6.08-3.2Zm-5.83 7.86h-2.33v8.16h2.33v-8.16Zm7 0h-2.33v8.16h2.33v-8.16ZM21 31.66v-2.33h22.16v2.33H21Zm19.25-12.83H37.9v8.16h2.34v-8.16Z" clip-rule="evenodd"/></svg>
